X:056
T:Angelic March,The TS.056
M:C|
L:1/8
Q:1/4=120
S:Thomas Sands’ MS,1810,Lincolnshire
R:march
O:England;Lincolnshire
Z:vmp.Ruairidh Greig, 2011
K:G
D2|G2BGd2BG|g2d>dd2cB|e2d2c2B2|A>GA>BA2d>c|
B2e>d^c2f>e|d2g>fe2a>g|f>ed>eA2^c2|d2d>dd2A2|
“pix”B2A2B2A2|d^cdAB2A2|B>cd>ef2e2|d2d>dd2:|
|:A2|d3ef3g|a2c>cc2B2|g2B>BB2A2|e2G>GG2F2|
A3Bc2 BA|Bcd4 ([ge][f/d/][e/c/])|[d2B2] ([ec][d/B/][c/A/])B2 (cB/A/)|G2GGG2D2|
“pix”E2D2E2D2|G>FGDE2D2|E>FGAB2A2|G2G>GG2:|]

